src/16/panel/synapse-panel.svg

<svg xmlns="http://www.w3.org/2000/svg" width="16" height="16" version="1.1">
 <defs>
  <style id="current-color-scheme" type="text/css">
   .ColorScheme-Text { color:#dfdfdf; } .ColorScheme-Highlight { color:#5294e2; }
  </style>
 </defs>
 <path style="fill:currentColor" class="ColorScheme-Text" d="M 7 0 L 7 1.1894531 A 6.5 6.5 0 0 0 2.1796875 6 L 4.265625 6 A 4.5 4.5 0 0 1 8.5 3 A 4.5 4.5 0 0 1 12.732422 6 L 14.808594 6 A 6.5 6.5 0 0 0 10 1.1894531 L 10 0 L 7 0 z M 8.5 4 A 3.5 3.5 0 0 0 5 7.5 A 3.5 3.5 0 0 0 5.0410156 8 L 5.4003906 8 L 6.0546875 8 L 10.949219 8 A 2.5 2.5 0 0 1 8.5 10 A 2.5 2.5 0 0 1 6.5019531 9 L 5.3417969 9 A 3.5 3.5 0 0 0 8.5 11 A 3.5 3.5 0 0 0 12 7.5 A 3.5 3.5 0 0 0 11.958984 7 L 11.400391 7 L 10.945312 7 L 6.0507812 7 A 2.5 2.5 0 0 1 8.5 5 A 2.5 2.5 0 0 1 10.498047 6 L 11.658203 6 A 3.5 3.5 0 0 0 8.5 4 z M 2.1835938 9 A 6.5 6.5 0 0 0 7 13.814453 L 7 15 L 8 15 L 9 15 L 10 15 L 10 13.808594 A 6.5 6.5 0 0 0 14.816406 9 L 12.736328 9 A 4.5 4.5 0 0 1 8.5 12 A 4.5 4.5 0 0 1 4.2636719 9 L 2.1835938 9 z"/>
</svg>

<svg xmlns="http://www.w3.org/2000/svg" width="16" height="16"><defs><style id="current-color-scheme" type="text/css"></style></defs><path d="M7 0v1.19A6.5 6.5 0 0 0 2.18 6h2.086A4.5 4.5 0 0 1 8.5 3a4.5 4.5 0 0 1 4.232 3h2.077A6.5 6.5 0 0 0 10 1.19V0H7zm1.5 4A3.5 3.5 0 0 0 5 7.5a3.5 3.5 0 0 0 .041.5h5.908A2.5 2.5 0 0 1 8.5 10a2.5 2.5 0 0 1-1.998-1h-1.16A3.5 3.5 0 0 0 8.5 11 3.5 3.5 0 0 0 12 7.5a3.5 3.5 0 0 0-.041-.5H6.051A2.5 2.5 0 0 1 8.5 5a2.5 2.5 0 0 1 1.998 1h1.16A3.5 3.5 0 0 0 8.5 4zM2.184 9A6.5 6.5 0 0 0 7 13.814V15h3v-1.191A6.5 6.5 0 0 0 14.816 9h-2.08A4.5 4.5 0 0 1 8.5 12a4.5 4.5 0 0 1-4.236-3h-2.08z" fill="currentColor" color="#dfdfdf"/></svg>
